X:289
T:Montreal
S:Talisk
Z:robin.beech@mcgill.ca
R:Reel
M:4/4
L:1/8
K:E
e4 bege | ebag agfe | B4 ceef | agge fbag |
e4 bege | ebag agfe | c4 cBGB |1 ceBG Aagf :|2 ceBG Aefg |:
agfe c4 | agfe B4 | ceec effe | fggb agfe |
c4 agfe | B4 Bcec | efef gffg | f4- fefg
agfe c4 | agfe B4 | ceec effe | fggb agfe |
agfe c4 | agfe B4 | Bcec efef | gffg fbag |]
